X:60
%%etbk:tnset id:212,pos:3,rep:3x,ant:
%%etbk:wsite http://www.thesession.org/tunes/display/605
%%etbk:video src:ytube,cde:-uwRI0sXSoU,desc:first tune
%%etbk:video src:ytube,cde:7M5EdNPpXI4,desc:third tune
%%etbk:skill ?
%%etbk:pldat 2013-11-12T18:20,2013-11-10T14:51,2013-11-09T14:51,2013-11-07T15:52,2013-10-04T16:57,2013-10-01T18:08,2013-05-15T17:05,2013-05-12T19:19,2013-05-07T19:11
T: Greig's Pipes
Z: Piano Box Version by Martin Fleischmann
H: Created 2013-02-19 /  Last Modified 2013-11-07
M: 4/4
L: 1/8
R: reel
K: Gmaj
|: B3!3!B BAGA | !3!B2GB A!1!G!2!E!1!G | !3!B3B !3!BAGB | !2!A2BG !2!A!1!G!2!E!1!G|
!3!B3B BAGA | !3!B2GB A!1!G!2!E!1!G  | !3!B!4!d!5!e!4!d !3!B!4!c!5!d!3!B | !2!AcB!1!G A!1!G!2!E!4!G ||
|: !1!D!2!GGG !1!D!2!G!4!BG | !1!D!2!G!4!BG !3!AG!1!E!2!G | !1!D!3!GG!2!F !1!G3!2!B | !4!dBAc !2!BGGG :|
|:d!2!d!1!B!2!d !3!ef!5!ge | !2!d!1!GGG !2!A!1!GGG | dd!1!B!2!d !3!ef!5!g!3!g | !4!a2bg !4!ag!1!e!3!g :|
